X:49
T:Farewell to London
R:reel
D:Providence: Fig for a Kiss
M:C|
K:G
G~B3 c2BA|GABd egdB|A~D3 ADFA|BdcA BdcA|
G2BG AGFA|GABG ABce|
d~g3 fgag|1 fdcA ~G3F:|2 fdcA GABc||
d~g3 fgaf|gdBG DCB,D|C2EC B,CDG|FGAB c2Bc|
d~g3 fgaf|gdBG DCB,D|
C2EC B,DGB|1 BAFA GABc:|2 BAFA G4||
